X:821
T:Haggis, The
T:Taigeis agus Dealg Innt'
S:Fraser Collection, 1815
Z:Nigel Gatherer
M:4/4
L:1/8
K:C
F | E/F/G Gc GEEF | E/F/G GB c2 ce | E/F/G GcGE  | D/D/D _BD F3   :|
g | ecgc     eccg | ecge     f2 fa | ecgc  ac gc | d/d/d _bd f2 fa |
    ecgc     eccg | ecge     fagf  | ecdB  cAGE  | D/D/D _BD F3   ||
